X: 4
T:Glenquey Reel
M:C|
L:1/8
Q:300
D:The Heart of Cape Breton, Smithsonian Folkways recording
R:  ((HT70B25M15D0U0))
K:D
D[DA][DA][DA] [DA][DA][DA][DA] | D[DA] [DA][DA] [DB][DB][DA][DA] | D2 [DA][DA] dgfe | dBAF ADDD :|
defg abaf | gefd eB B2 | defg abaf | geag fc c2 |
defg abaf | gefd eB B2 | dfeg fagb | afge fd d2 |
